X:1
T:The Art of Fugue Contrapunctus V (A = 415 Hz)
T:BWV 1080
T:J. S. Bach
%%score { ( 1 4 ) | ( 2 3 ) } { ( 5 7 ) | ( 6 8 ) }
L:1/8
Q:1/4=132
M:2/2
K:E
V:1 alto1 nm="Harp"
V:4 alto1 
V:2 alto 
V:3 alto 
V:5 tenor nm="Harp"
V:7 tenor 
V:6 bass 
V:8 bass 
V:1
"^Allegro" z8 | z8 | z8 | z8 | z8 | z8 | c4 g3 f | e3 d c4 | ^B4 c3 d | e4- egfe | d=g^g^a b4- | %11
 bbag a4- | aagf g4- | g2 a2 f4- | f6 e2 | d4 z4 | c4 G3 ^A | B3 c d4 | e4 d3 c | B4- B^ABc | %20
 d2 =d2- d^e^d=d | dcB^A B3 A | G4- GAGF | GBcd ef g2- | gfed edc^B | cG^A^B c4- | cBAG F4- | %27
 F4- FE A2 | G2 z2 z4 | z8 | z8 | z8 | z4 B4 | E3 F G3 A | B4 c4 | B3 A G4- | GFGA B4- | %37
 BcBA G2 e2- | e2 d4 c2- | c2 B4 A2- | A3 G B^A B2 | ^EC F2- Ff e2 | A3 G c2 z2 | z2 z4 c2 | %44
 f6 e=d | e4- e=d c2- | cFE=D CEFG | AE A2- ABAG | AB c2- c=d e2- | e=dcB A3 B | c2 B2 e4- | %51
 edef B4- | B2 e2 B3 c | =d3 e f2 c2- | cd e2- ef g2 | de f2 cd e2 | d4 g3 f | e3 d c4 | ^B4 c3 d | %59
 e4- efed | c6 G2- | G2 B2 E4- | EGFE D4- | D4- DC^B,C | ^B,2 d2 g3 f | e3 d c2 f2- | %66
 fe d2- dc B2 | ed c2 fe d2 | g4 c3 d | e3 f g4 | a4 g3 f | e4- edef | gfeg c4- | c2 B4 A2 | %74
 G4- GCFA | D6 C2- | C^B,C^A, B,D G2- | GAGF EDCD | EF G2- GFEF | GFED CAGF | EG^AB c4- | %81
 c=dcB Ac^d^e | f4- fgfe | d^B c2- c3 f | ^B2 c2- c2 B2 | c4 z cBA | GAGF ^EFEG | DCDF ^EG B2- | %88
 B4- BAc^B | !fermata!c8 |] %90
V:2
 G4 C3 D | E3 F G4 | A4 G3 F | E4- EDEF | GA B3 AGA | DE F3 GEF | GFED C^A, ^B,2 | C4- CDEF | %8
 GD G3 C F2 | EG^A^B cG c2 | B4 z4 | z4[K:treble] z gfe | d4- dfed | e4 d4- | dG^A^B cG c2- | %15
 cc^B^A B4 |[K:alto] z G,^A,^B, CD E2- | EF G2- GFED | C2 c2- ccB^A | GD^E=G ^G4- | G=G^G^A B4 | %21
 ^A4- AAG=G | GFED E3 F | B,2 z2 z4 | z8 | C4 G3 F | E3 D C4 | ^B,4 C3 D | E4- EFE=D | C8- | %30
 C=DCB, A,4- | A,4- A,CB,A, | G,3 G FE F2 | B,2 z2 z EDC | FG A2- AG A2 | G2 D2 E4- | EDEF G4- | %37
 GAGF E2 G2 | F4 E4 | D4 C4 | B,2 z2 F4 | c3 B A3 G | F4 ^E4 | F3 G A4- | ABAG FAGF | G2 B2 E3 F | %46
 E=DCB, C2 z2 | z G,A,B, CB, =D2 | C2 FG AB c2- | cBAG FG A2- | AF G2- GEFG | A4- AAGF | G2 z4 B2 | %53
 F3 G A3 B | c2 G2- GA B2- | B2 A4 G2- | G^AG=G ^G2 z2 | z4 C4 | G3 F E3 D | C4 ^B,4 | C3 D E4- | %61
 EFE=D C4- | C4- CCB,A, | G,6 =G,2 | G,2 z2 z2 G2 | c3 B A3 G | F2 B2- BA G2- | GF E2 AG F2 | %68
 BA B2- BG A2 | G[K:alto1]^Bcd e4 | z gfe dc d2 | c4 z4 | z8 |[K:alto] z8 | z8 | z8 | z8 | %77
 C4 G3 F | E2- ED C4 | ^B,4 C3 D | E4- EFED | C6 z2 | z GAB c4 | G4- GG F2- | FG A2 G2 F2- | %85
 F2 ^E2 G3 F | ^E3 D C4 | ^B,4 C3 D | ^E4- EFED | !fermata!C8 |] %90
V:3
 x8 | x8 | x8 | x8 | x8 | x8 | x8 | x8 | x8 | x8 | x8 | x4[K:treble] x4 | x8 | x8 | x8 | x8 | %16
[K:alto] x8 | x8 | x8 | x8 | x8 | x8 | x8 | x8 | x8 | x8 | x8 | x8 | x8 | x8 | x8 | x8 | x8 | x8 | %34
 x8 | x8 | x8 | x8 | x8 | x8 | x8 | x8 | x8 | x8 | x8 | x8 | x8 | x8 | x8 | x8 | x8 | x8 | x8 | %53
 x8 | x8 | x8 | x8 | x8 | x8 | x8 | x8 | x8 | x8 | x8 | x8 | x8 | x8 | x8 | x8 | x[K:alto1] x7 | %70
 x8 | x8 | x8 |[K:alto] x8 | x8 | x8 | x8 | x8 | x8 | x8 | x8 | x8 | x8 | x8 | x8 | C4 z4 | x8 | %87
 x8 | x8 | x8 |] %90
V:4
 x8 | x8 | x8 | x8 | x8 | x8 | x8 | x8 | x8 | x8 | x8 | x8 | x8 | x8 | x8 | x8 | x8 | x8 | x8 | %19
 x8 | x8 | x8 | x8 | x8 | x8 | x8 | x8 | x8 | x8 | x8 | x8 | x8 | x8 | x8 | x8 | x8 | x8 | x8 | %38
 x8 | x8 | x8 | x8 | x8 | x8 | x8 | x8 | x8 | x8 | x8 | x8 | x8 | x8 | x8 | x8 | x8 | x8 | x8 | %57
 x8 | x8 | x8 | x8 | x8 | x8 | x8 | x8 | x8 | x8 | x8 | x8 | x8 | x8 | x8 | x8 | x8 | x8 | x8 | %76
 x8 | x8 | x8 | x8 | x8 | x8 | x8 | x8 | x8 | x8 | x8 | z4 z G3- | G4- GAGF | ^E8 |] %90
V:5
 z8 | z8 | z8 | z8 | z8 | z8 | z8 | z8 | z8 | C4 G,3 ^A, | B,3 C D4 | E4 D3 C | ^B,4- B,G,^A,B, | %13
 C4- CC^B,^A, | ^B,2 CD EDEF | G2 D2 G4 | z8 | z8 | z8 | G,4 D3 C | B,3 ^A, G,4 | =G,4 ^G,3 ^A, | %22
 B,4- B,CB,A, | G,4 z DC^B, | C4- C^B, D2 | G,6 C2- | C3 B, A,4- | A,A,G,F, G,3 F, | G,2 A,2 B,4- | %29
 B,A,G,F, E,2 F,2 | G,4- G,F,E,D, | C,2 D,2 E,2 F,2- | F,F, E,2- E,2 D,2 | E,B,,C,D, E,2 z2 | %34
 z2 z B,, E,3 D, | E,G, B,2- B,4- | B,A,G,F, E,4- | E,D,E,F, G,2 z2 | z8 | z8 | B,4 F,3 G, | %41
 A,3 B, C4 | =D4 C3 B, | A,4- A,G,A,B, | C4- CCB,A, | B,4- B,E, A,2- | A,2 G,2 A,2 z2 | z4 E4 | %48
 A,3 B, C3 =D | E4 F4 | E3 =D C4- | CB,CD E4- | E2 z2 E2 B,2- | B,C =D2- DE F2 | C3 D E3 F | %55
 G2 DE F2 C2- | CC^B,^A, B,4 | CG, B,2- B,G,A,F | D2 G,2- G,G,^A,^B, | C2 z2 z2 G2 | %60
 A2 A,2 G,F,G,A, | B,4- B,B,A,G, | F,8- | F,F,E,D, E,4 | D,2 z2 z4 | C2 F2- FE D2- | DC B,2 E3 D | %67
 C6 D2- | DCD^E F4 | G4 C3 D | E3 F G4 | A4 G3 F | E4- ED^EF | GF^EG C2 F2- | F^B,CE A,4- | %75
 A,G,F,G, E,4 | D,4 G,3 F, | E,3 D, C,4 | ^B,,4 C,3 D, | E,4- E,F,E,D, | C,E,F,G, A,4- | %81
 A,B,A,G, F,A,B,C | =D4 C2 F2- | F2 ED CEDC | D2 E2 DC D2 | C4 z D,^E,F, | G,F,G,A, B,A,B,^E, | %87
 F,G,F,D, G,F,^E,D, | C,4- C,^B,,C,D, | !fermata!^E,8 |] %90
V:6
 z8 | z8 | z8 | C,4 G,3 F, | E,3 D, C,4 | ^B,,4 C,3 D, | E,4- E,F,E,D, | C,E,F,G, A,4 | %8
 G,3 G,, ^A,,3 ^B,, | C,3 D, E,2 C,2 | G,4- G,G,A,B, | C4 F,4- | F,F,E,D, E,4- | E,E,D,C, D,4 | %14
 G,8- | G,4- G,A,G,F, | E,6 C,2 | G,2 E,2 B,4- | B,B,^A,G, =G,4 | G,4- G,F, E,2 | D,8- | D,4 z4 | %22
 G,4 C,3 D, | E,3 F, G,4 | A,4 G,3 F, | E,4- E,D,E,F, | G,4 z G,F,E, | D,4 C,4- | C,C,B,,A,, G,,4 | %29
 A,,4- A,,A,,G,,F,, | ^E,,4 F,,4- | F,,F,,E,,D,, C,,2 D,,2 | E,,4 B,,3 A,, | G,,3 F,, E,,4 | %34
 D,,4 E,,3 F,, | G,,4- G,,A,,G,,F,, | E,,4- E,,G,,A,,B,, | C,4- C,D,C,B,, | %38
 ^A,,C,B,,A,, G,,F,,G,,A,, | B,,C,D,E, F,G,F,E, | D,B,, E,2- E,2 =D,2 | C,8- | %42
 C,F,, B,,2- B,,B,,A,,G,, | F,,C,D,^E, F,4- | F,2 E,2 =D,4- | D,=D,C,B,, C,3 D, | E,4 A,,3 B,, | %47
 C,3 =D, E,4 | F,4 E,3 =D, | C,4- C,B,,C,=D, | E,8- | E,8- | E,2 z2 z4 | B,2 F,2- F,G, A,2- | %54
 A,B, C2 G,3 A, | B,2 F,G, A,2 E,F, | G,4- G,F,E,D, | C,4 z2 F,2- | F,D, E,2- E,4- | %59
 E,D,E,F, G,4- | G,^E, F,2 C,4 | G,,4 A,,4 | ^A,,4 B,,4 | ^B,,4 C,4 | G,,2 z2 G,2 C2- | %65
 CB, A,2- A,G, F,2 | B,3 A, G,3 F, | E,2 A,G, F,2 B,A, | G,4 F,4 | C,4[K:tenor] z FED | C6 ^B,2 | %71
 CF,G,A, B,B,,C,D, | E,F,G,E, A,2 G,F, | ^E,2 G,2[K:bass] A,G,,A,,B,, | C,D,E,C, F,E,D,F, | %75
 ^B,,C,D,B,, C,=B,,A,,C, | =G,,^G,,^A,,=G,, ^G,,F,E,D, | C,4- C,B,, A,,2 | G,,A,,G,,F,, E,,2 A,,2 | %79
 G,,6 ^A,,^B,, | C,4- C,^B,,C,D, | E,2 ^E,2 F,4- | F,^E,F,G, A,3 ^A, | =CG,^CB, ^A,G, =A,2- | %84
 A,2 G,=G, ^G,2 G,,2 | G,4 C,3 D, | ^E,3 F, G,4 | A,4 G,3 F, | E,4- E,D,E,F, | !fermata!G,8 |] %90
V:7
 x8 | x8 | x8 | x8 | x8 | x8 | x8 | x8 | x8 | x8 | x8 | x8 | x8 | x8 | x8 | x8 | x8 | x8 | x8 | %19
 x8 | x8 | x8 | x8 | x8 | x8 | x8 | x8 | x8 | x8 | x8 | x8 | x8 | x8 | x8 | x8 | x8 | x8 | x8 | %38
 x8 | x8 | x8 | x8 | x8 | x8 | x8 | x8 | x8 | x8 | x8 | x8 | x8 | x8 | x8 | x8 | x8 | x8 | x8 | %57
 x8 | x8 | x8 | x8 | x8 | x8 | x8 | x8 | x8 | x8 | x8 | x8 | x8 | x8 | x8 | x8 | x8 | x8 | x8 | %76
 x8 | x8 | x8 | x8 | x8 | x8 | x8 | x8 | x8 | G,4 z4 | x8 | x8 | x8 | x8 |] %90
V:8
 x8 | x8 | x8 | x8 | x8 | x8 | x8 | x8 | x8 | x8 | x8 | x8 | x8 | x8 | x8 | x8 | x8 | x8 | x8 | %19
 x8 | x8 | x8 | x8 | x8 | x8 | x8 | x8 | x8 | x8 | x8 | x8 | x8 | x8 | x8 | x8 | x8 | x8 | x8 | %38
 x8 | x8 | x8 | x8 | x8 | x8 | x8 | x8 | x8 | x8 | x8 | x8 | x8 | x8 | x8 | x8 | x8 | x8 | x8 | %57
 x8 | x8 | x8 | x8 | x8 | x8 | x8 | x8 | x8 | x8 | x8 | x8 | x4[K:tenor] x4 | x8 | x8 | x8 | %73
 x4[K:bass] x4 | x8 | x8 | x8 | x8 | x8 | x8 | x8 | x8 | x8 | x8 | x8 | C,4 z4 | C,4 z4 | C,4 z4 | %88
 z B,,A,,G,, F,,4 | C,8 |] %90

